(BOARD)
(T5  D=2.2 CR=0. - ZMIN=-1.8 - FLAT END MILL)
G90 G94 G91.1 G40 G49 G17
G21
G28 G91 Z0.
G90

(2D CONTOUR2)
M5
T5 M6
S20000 M3
G54
G0 A0.
M8
G0 X80.76 Y17.72
G43 Z15. H5
Z5.
G1 Z0.44 F200.
Z-0.78
G18 G3 X80.54 Z-1. I-0.22 K0. F500.
G1 X80.32
G17 G3 X80.1 Y17.5 I0. J-0.22
G1 Y3.
G2 X79.778 Y2.222 I-1.1 J0.
G1 X76.778 Y-0.778
G2 X76. Y-1.1 I-0.778 J0.778
G1 X3.
G2 X2.222 Y-0.778 I0. J1.1
G1 X-0.778 Y2.222
G2 X-1.1 Y3. I0.778 J0.778
G1 Y32.
G2 X-0.778 Y32.778 I1.1 J0.
G1 X2.222 Y35.778
G2 X3. Y36.1 I0.778 J-0.778
G1 X76.
G2 X76.778 Y35.778 I0. J-1.1
G1 X79.778 Y32.778
G2 X80.1 Y32. I-0.778 J-0.778
G1 Y17.5
G3 X80.32 Y17.28 I0.22 J0.
G1 X80.54
G18 G2 X80.76 Z-0.78 I0. K0.22
G0 Z5.
Y17.72
G1 Z-0.56 F200.
Z-1.58
G3 X80.54 Z-1.8 I-0.22 K0. F500.
G1 X80.32
G17 G3 X80.1 Y17.5 I0. J-0.22
G1 Y3.
G2 X79.778 Y2.222 I-1.1 J0.
G1 X76.778 Y-0.778
G2 X76. Y-1.1 I-0.778 J0.778
G1 X3.
G2 X2.222 Y-0.778 I0. J1.1
G1 X-0.778 Y2.222
G2 X-1.1 Y3. I0.778 J0.778
G1 Y32.
G2 X-0.778 Y32.778 I1.1 J0.
G1 X2.222 Y35.778
G2 X3. Y36.1 I0.778 J-0.778
G1 X76.
G2 X76.778 Y35.778 I0. J-1.1
G1 X79.778 Y32.778
G2 X80.1 Y32. I-0.778 J-0.778
G1 Y17.5
G3 X80.32 Y17.28 I0.22 J0.
G1 X80.54
G18 G2 X80.76 Z-1.58 I0. K0.22
G0 Z15.
G17

M9
G28 G91 Z0.
G90
G28 G91 X0. Y0.
G90
M30
