(DRILL PIN)
(T14  D=0.8 CR=0. TAPER=118DEG - ZMIN=-2. - DRILL)
G90 G94 G91.1 G40 G49 G17
G21
G28 G91 Z0.
G90

(DRILL2)
M5
T14 M6
S18000 M3
G54
G0 A0.
M8
G0 X4.5 Y23.
G43 Z5. H14
Z2.
Z0.947
G1 Z-1.2 F200.
Z-2.
Z0.947
G0 Z2.
X16.08 Y15.68
Z0.947
G1 Z-1.2 F200.
Z-2.
Z0.947
G0 Z2.
X18.62
Z0.947
G1 Z-1.2 F200.
Z-2.
Z0.947
G0 Z2.
X21.16
Z0.947
G1 Z-1.2 F200.
Z-2.
Z0.947
G0 Z2.
X23.7
Z0.947
G1 Z-1.2 F200.
Z-2.
Z0.947
G0 Z2.
X26.24
Z0.947
G1 Z-1.2 F200.
Z-2.
Z0.947
G0 Z2.
X34.49
Z0.947
G1 Z-1.2 F200.
Z-2.
Z0.947
G0 Z2.
X37.03
Z0.947
G1 Z-1.2 F200.
Z-2.
Z0.947
G0 Z2.
X39.57
Z0.947
G1 Z-1.2 F200.
Z-2.
Z0.947
G0 Z2.
X42.11
Z0.947
G1 Z-1.2 F200.
Z-2.
Z0.947
G0 Z2.
X36.913 Y5.8
Z0.947
G1 Z-1.2 F200.
Z-2.
Z0.947
G0 Z2.
X39.453 Y5.9
Z0.947
G1 Z-1.2 F200.
Z-2.
Z0.947
G0 Z2.
X41.993
Z0.947
G1 Z-1.2 F200.
Z-2.
Z0.947
G0 Z2.
X44.533
Z0.947
G1 Z-1.2 F200.
Z-2.
Z0.947
G0 Z2.
X44.65 Y15.68
Z0.947
G1 Z-1.2 F200.
Z-2.
Z0.947
G0 Z2.
X53.
Z0.947
G1 Z-1.2 F200.
Z-2.
Z0.947
G0 Z2.
X55.54
Z0.947
G1 Z-1.2 F200.
Z-2.
Z0.947
G0 Z2.
X58.08
Z0.947
G1 Z-1.2 F200.
Z-2.
Z0.947
G0 Z2.
X60.62
Z0.947
G1 Z-1.2 F200.
Z-2.
Z0.947
G0 Z2.
X63.16
Z0.947
G1 Z-1.2 F200.
Z-2.
Z0.947
G0 Z2.
X74.5 Y23.
Z0.947
G1 Z-1.2 F200.
Z-2.
Z0.947
G0 Z2.
Z5.

M9
G28 G91 Z0.
G90
G28 G91 X0. Y0.
G90
M30
