(ACRILICO)
(T5  D=2. CR=0. - ZMIN=-3.5 - FLAT END MILL)
G90 G94 G91.1 G40 G49 G17
G21
G28 G91 Z0.
G90

(2D CONTOUR3)
M5
T5 M6
S20000 M3
G54
G0 A0.
M8
G0 X51. Y10.9
G43 Z5. H5
Z1.
G1 Z0.4 F200.
Z-0.8
G18 G3 X50.8 Z-1. I-0.2 K0. F500.
G1 X50.6
G17 G3 X50.4 Y10.7 I0. J-0.2
G1 Y1.824
G2 X50.107 Y1.117 I-1. J0.
G1 X48.283 Y-0.707
G2 X47.576 Y-1. I-0.707 J0.707
G1 X1.824
G2 X1.117 Y-0.707 I0. J1.
G1 X-0.707 Y1.117
G2 X-1. Y1.824 I0.707 J0.707
G1 Y19.576
G2 X-0.707 Y20.283 I1. J0.
G1 X1.117 Y22.107
G2 X1.824 Y22.4 I0.707 J-0.707
G1 X47.576
G2 X48.283 Y22.107 I0. J-1.
G1 X50.107 Y20.283
G2 X50.4 Y19.576 I-0.707 J-0.707
G1 Y10.7
G3 X50.6 Y10.5 I0.2 J0.
G1 X50.8
G18 G2 X51. Z-0.8 I0. K0.2
G0 Z2.
Y10.9
Z1.
G1 Z-0.6 F200.
Z-1.8
G3 X50.8 Z-2. I-0.2 K0. F500.
G1 X50.6
G17 G3 X50.4 Y10.7 I0. J-0.2
G1 Y1.824
G2 X50.107 Y1.117 I-1. J0.
G1 X48.283 Y-0.707
G2 X47.576 Y-1. I-0.707 J0.707
G1 X1.824
G2 X1.117 Y-0.707 I0. J1.
G1 X-0.707 Y1.117
G2 X-1. Y1.824 I0.707 J0.707
G1 Y19.576
G2 X-0.707 Y20.283 I1. J0.
G1 X1.117 Y22.107
G2 X1.824 Y22.4 I0.707 J-0.707
G1 X47.576
G2 X48.283 Y22.107 I0. J-1.
G1 X50.107 Y20.283
G2 X50.4 Y19.576 I-0.707 J-0.707
G1 Y10.7
G3 X50.6 Y10.5 I0.2 J0.
G1 X50.8
G18 G2 X51. Z-1.8 I0. K0.2
G0 Z2.
Y10.9
Z1.
G1 Z-1.6 F200.
Z-2.8
G3 X50.8 Z-3. I-0.2 K0. F500.
G1 X50.6
G17 G3 X50.4 Y10.7 I0. J-0.2
G1 Y1.824
G2 X50.107 Y1.117 I-1. J0.
G1 X48.283 Y-0.707
G2 X47.576 Y-1. I-0.707 J0.707
G1 X1.824
G2 X1.117 Y-0.707 I0. J1.
G1 X-0.707 Y1.117
G2 X-1. Y1.824 I0.707 J0.707
G1 Y19.576
G2 X-0.707 Y20.283 I1. J0.
G1 X1.117 Y22.107
G2 X1.824 Y22.4 I0.707 J-0.707
G1 X47.576
G2 X48.283 Y22.107 I0. J-1.
G1 X50.107 Y20.283
G2 X50.4 Y19.576 I-0.707 J-0.707
G1 Y10.7
G3 X50.6 Y10.5 I0.2 J0.
G1 X50.8
G18 G2 X51. Z-2.8 I0. K0.2
G0 Z2.
Y10.9
Z1.
G1 Z-2.6 F200.
Z-3.3
G3 X50.8 Z-3.5 I-0.2 K0. F500.
G1 X50.6
G17 G3 X50.4 Y10.7 I0. J-0.2
G1 Y1.824
G2 X50.107 Y1.117 I-1. J0.
G1 X48.283 Y-0.707
G2 X47.576 Y-1. I-0.707 J0.707
G1 X1.824
G2 X1.117 Y-0.707 I0. J1.
G1 X-0.707 Y1.117
G2 X-1. Y1.824 I0.707 J0.707
G1 Y19.576
G2 X-0.707 Y20.283 I1. J0.
G1 X1.117 Y22.107
G2 X1.824 Y22.4 I0.707 J-0.707
G1 X47.576
G2 X48.283 Y22.107 I0. J-1.
G1 X50.107 Y20.283
G2 X50.4 Y19.576 I-0.707 J-0.707
G1 Y10.7
G3 X50.6 Y10.5 I0.2 J0.
G1 X50.8
G18 G2 X51. Z-3.3 I0. K0.2
G0 Z5.
G17

M9
G28 G91 Z0.
G90
G28 G91 X0. Y0.
G90
M30
