(BOARD)
(T5  D=2. CR=0. - ZMIN=-2. - FLAT END MILL)
G90 G94 G91.1 G40 G49 G17
G21
G28 G91 Z0.
G90

(2D CONTOUR1)
M5
T5 M6
S20000 M3
G54
G0 A0.
M8
G0 X56.6 Y80.2
G43 Z15. H5
Z5.
G1 Z0.4 F200.
Z-0.8
G18 G3 X56.4 Z-1. I-0.2 K0. F500.
G1 X56.2
G17 G3 X56. Y80. I0. J-0.2
G1 Y0.
G2 X55. Y-1. I-1. J0.
G1 X0.
G2 X-1. Y0. I0. J1.
G1 Y80.
G2 X0. Y81. I1. J0.
G1 X55.
G2 X56. Y80. I0. J-1.
G3 X56.2 Y79.8 I0.2 J0.
G1 X56.4
G18 G2 X56.6 Z-0.8 I0. K0.2
G0 Z5.
Y80.2
G1 Z-0.6 F200.
Z-1.8
G3 X56.4 Z-2. I-0.2 K0. F500.
G1 X56.2
G17 G3 X56. Y80. I0. J-0.2
G1 Y0.
G2 X55. Y-1. I-1. J0.
G1 X0.
G2 X-1. Y0. I0. J1.
G1 Y80.
G2 X0. Y81. I1. J0.
G1 X55.
G2 X56. Y80. I0. J-1.
G3 X56.2 Y79.8 I0.2 J0.
G1 X56.4
G18 G2 X56.6 Z-1.8 I0. K0.2
G0 Z15.
G17

M9
G28 G91 Z0.
G90
G28 G91 X0. Y0.
G90
M30
