(DRILL SMALL)
(T7  D=0.9 CR=0. TAPER=118DEG - ZMIN=-2.5 - DRILL)
G90 G94 G91.1 G40 G49 G17
G21
G28 G91 Z0.
G90

(RES)
M5
T7 M6
S18000 M3
G54
G0 A0.
M8
G0 X7.7 Y22.08
G43 Z10. H7
Z5.
Z3.
G1 Z-1.6 F300.
Z-2.5
Z3.
G0 Z5.
X2.7 Y20.3
Z3.
G1 Z-1.6 F300.
Z-2.5
Z3.
G0 Z5.
X7.7 Y19.58
Z3.
G1 Z-1.6 F300.
Z-2.5
Z3.
G0 Z5.
X8.84 Y14.3
Z3.
G1 Z-1.6 F300.
Z-2.5
Z3.
G0 Z5.
X17.13 Y5.
Z3.
G1 Z-1.6 F300.
Z-2.5
Z3.
G0 Z5.
X19.67
Z3.
G1 Z-1.6 F300.
Z-2.5
Z3.
G0 Z5.
X19.66 Y14.3
Z3.
G1 Z-1.6 F300.
Z-2.5
Z3.
G0 Z5.
X20.04 Y19.6
Z3.
G1 Z-1.6 F300.
Z-2.5
Z3.
G0 Z5.
X22.7 Y21.4
Z3.
G1 Z-1.6 F300.
Z-2.5
Z3.
G0 Z5.
X22.54 Y25.6
Z3.
G1 Z-1.6 F300.
Z-2.5
Z3.
G0 Z5.
X20.
Z3.
G1 Z-1.6 F300.
Z-2.5
Z3.
G0 Z5.
X17.46
Z3.
G1 Z-1.6 F300.
Z-2.5
Z3.
G0 Z5.
X14.96 Y19.6
Z3.
G1 Z-1.6 F300.
Z-2.5
Z3.
G0 Z5.
X11.4 Y24.8
Z3.
G1 Z-1.6 F300.
Z-2.5
Z3.
G0 Z5.
X8.613 Y29.2
Z3.
G1 Z-1.6 F300.
Z-2.5
Z3.
G0 Z5.
X6.113
Z3.
G1 Z-1.6 F300.
Z-2.5
Z3.
G0 Z5.
X6.43 Y34.48
Z3.
G1 Z-1.6 F300.
Z-2.5
Z3.
G0 Z5.
X3.89
Z3.
G1 Z-1.6 F300.
Z-2.5
Z3.
G0 Z5.
Y42.1
Z3.
G1 Z-1.6 F300.
Z-2.5
Z3.
G0 Z5.
X6.43
Z3.
G1 Z-1.6 F300.
Z-2.5
Z3.
G0 Z5.
X8.97
Z3.
G1 Z-1.6 F300.
Z-2.5
Z3.
G0 Z5.
X11.51
Z3.
G1 Z-1.6 F300.
Z-2.5
Z3.
G0 Z5.
X8.97 Y34.48
Z3.
G1 Z-1.6 F300.
Z-2.5
Z3.
G0 Z5.
X11.51
Z3.
G1 Z-1.6 F300.
Z-2.5
Z3.
G0 Z5.
X12.2 Y29.6
Z3.
G1 Z-1.6 F300.
Z-2.5
Z3.
G0 Z5.
X17.42 Y30.595
Z3.
G1 Z-1.6 F300.
Z-2.5
Z3.
G0 Z5.
X23.81 Y31.045
Z3.
G1 Z-1.6 F300.
Z-2.5
Z3.
G0 Z5.
X28.3 Y30.59
Z3.
G1 Z-1.6 F300.
Z-2.5
Z3.
G0 Z5.
X33.3
Z3.
G1 Z-1.6 F300.
Z-2.5
Z3.
G0 Z5.
X28.3 Y41.41
Z3.
G1 Z-1.6 F300.
Z-2.5
Z3.
G0 Z5.
X33.3
Z3.
G1 Z-1.6 F300.
Z-2.5
Z3.
G0 Z5.
X41.023 Y37.2
Z3.
G1 Z-1.6 F300.
Z-2.5
Z3.
G0 Z5.
X39.43 Y40.99
Z3.
G1 Z-1.6 F300.
Z-2.5
Z3.
G0 Z5.
Y43.53
Z3.
G1 Z-1.6 F300.
Z-2.5
Z3.
G0 Z5.
Y46.07
Z3.
G1 Z-1.6 F300.
Z-2.5
Z3.
G0 Z5.
Y48.61
Z3.
G1 Z-1.6 F300.
Z-2.5
Z3.
G0 Z5.
X43.563 Y55.7
Z3.
G1 Z-1.6 F300.
Z-2.5
Z3.
G0 Z5.
X41.023
Z3.
G1 Z-1.6 F300.
Z-2.5
Z3.
G0 Z5.
X34.7 Y59.42
Z3.
G1 Z-1.6 F300.
Z-2.5
Z3.
G0 Z5.
X27.3
Z3.
G1 Z-1.6 F300.
Z-2.5
Z3.
G0 Z5.
X22.55 Y50.97
Z3.
G1 Z-1.6 F300.
Z-2.5
Z3.
G0 Z5.
Y46.98
Z3.
G1 Z-1.6 F300.
Z-2.5
Z3.
G0 Z5.
X23.81 Y41.405
Z3.
G1 Z-1.6 F300.
Z-2.5
Z3.
G0 Z5.
X17.42 Y40.955
Z3.
G1 Z-1.6 F300.
Z-2.5
Z3.
G0 Z5.
X15.8 Y44.2
Z3.
G1 Z-1.6 F300.
Z-2.5
Z3.
G0 Z5.
X11.73 Y46.98
Z3.
G1 Z-1.6 F300.
Z-2.5
Z3.
G0 Z5.
Y50.97
Z3.
G1 Z-1.6 F300.
Z-2.5
Z3.
G0 Z5.
X5.92 Y47.36
Z3.
G1 Z-1.6 F300.
Z-2.5
Z3.
G0 Z5.
Y49.86
Z3.
G1 Z-1.6 F300.
Z-2.5
Z3.
G0 Z5.
X4.7 Y54.545
Z3.
G1 Z-1.6 F300.
Z-2.5
Z3.
G0 Z5.
Y65.365
Z3.
G1 Z-1.6 F300.
Z-2.5
Z3.
G0 Z5.
X15.83 Y76.25
Z3.
G1 Z-1.6 F300.
Z-2.5
Z3.
G0 Z5.
X18.37
Z3.
G1 Z-1.6 F300.
Z-2.5
Z3.
G0 Z5.
X27.3 Y69.78
Z3.
G1 Z-1.6 F300.
Z-2.5
Z3.
G0 Z5.
X34.7
Z3.
G1 Z-1.6 F300.
Z-2.5
Z3.
G0 Z5.
X36.93 Y76.25
Z3.
G1 Z-1.6 F300.
Z-2.5
Z3.
G0 Z5.
X39.47
Z3.
G1 Z-1.6 F300.
Z-2.5
Z3.
G0 Z5.
X51. Y65.365
Z3.
G1 Z-1.6 F300.
Z-2.5
Z3.
G0 Z5.
X46.103 Y55.7
Z3.
G1 Z-1.6 F300.
Z-2.5
Z3.
G0 Z5.
X51. Y54.545
Z3.
G1 Z-1.6 F300.
Z-2.5
Z3.
G0 Z5.
X47.37 Y48.61
Z3.
G1 Z-1.6 F300.
Z-2.5
Z3.
G0 Z5.
Y46.07
Z3.
G1 Z-1.6 F300.
Z-2.5
Z3.
G0 Z5.
X51. Y44.16
Z3.
G1 Z-1.6 F300.
Z-2.5
Z3.
G0 Z5.
X47.37 Y43.53
Z3.
G1 Z-1.6 F300.
Z-2.5
Z3.
G0 Z5.
Y40.99
Z3.
G1 Z-1.6 F300.
Z-2.5
Z3.
G0 Z5.
X43.563 Y37.2
Z3.
G1 Z-1.6 F300.
Z-2.5
Z3.
G0 Z5.
X46.103
Z3.
G1 Z-1.6 F300.
Z-2.5
Z3.
G0 Z5.
X51. Y33.34
Z3.
G1 Z-1.6 F300.
Z-2.5
Z3.
G0 Z5.
Y24.06
Z3.
G1 Z-1.6 F300.
Z-2.5
Z3.
G0 Z5.
X46.7 Y23.955
Z3.
G1 Z-1.6 F300.
Z-2.5
Z3.
G0 Z5.
X42.9 Y23.98
Z3.
G1 Z-1.6 F300.
Z-2.5
Z3.
G0 Z5.
Y13.62
Z3.
G1 Z-1.6 F300.
Z-2.5
Z3.
G0 Z5.
X46.7 Y13.595
Z3.
G1 Z-1.6 F300.
Z-2.5
Z3.
G0 Z5.
X51. Y13.24
Z3.
G1 Z-1.6 F300.
Z-2.5
Z3.
G0 Z5.
Z10.

M9
G28 G91 Z0.
G90
G28 G91 X0. Y0.
G90
M30
