(DRILL PIN)
(T7  D=0.9 CR=0. TAPER=118DEG - ZMIN=-2.5 - DRILL)
G90 G94 G91.1 G40 G49 G17
G21
G28 G91 Z0.
G90

(CON)
M5
T7 M6
S18000 M3
G54
G0 A0.
M8
G0 X20. Y67.
G43 Z10. H7
Z5.
Z3.
G1 Z-1.6 F300.
Z-2.5
Z3.
G0 Z5.
X17.46
Z3.
G1 Z-1.6 F300.
Z-2.5
Z3.
G0 Z5.
X14.92
Z3.
G1 Z-1.6 F300.
Z-2.5
Z3.
G0 Z5.
X10.5 Y76.5
Z3.
G1 Z-1.6 F300.
Z-2.5
Z3.
G0 Z5.
X7.96
Z3.
G1 Z-1.6 F300.
Z-2.5
Z3.
G0 Z5.
X5.42
Z3.
G1 Z-1.6 F300.
Z-2.5
Z3.
G0 Z5.
X2.88 Y76.4
Z3.
G1 Z-1.6 F300.
Z-2.5
Z3.
G0 Z5.
X12.38 Y66.9
Z3.
G1 Z-1.6 F300.
Z-2.5
Z3.
G0 Z5.
Y58.9
Z3.
G1 Z-1.6 F300.
Z-2.5
Z3.
G0 Z5.
X14.92 Y59.
Z3.
G1 Z-1.6 F300.
Z-2.5
Z3.
G0 Z5.
X17.46
Z3.
G1 Z-1.6 F300.
Z-2.5
Z3.
G0 Z5.
X20.
Z3.
G1 Z-1.6 F300.
Z-2.5
Z3.
G0 Z5.
X31.2 Y64.7
Z3.
G1 Z-1.6 F300.
Z-2.5
Z3.
G0 Z5.
X24.78 Y76.4
Z3.
G1 Z-1.6 F300.
Z-2.5
Z3.
G0 Z5.
X27.32 Y76.5
Z3.
G1 Z-1.6 F300.
Z-2.5
Z3.
G0 Z5.
X29.86
Z3.
G1 Z-1.6 F300.
Z-2.5
Z3.
G0 Z5.
X32.4
Z3.
G1 Z-1.6 F300.
Z-2.5
Z3.
G0 Z5.
X44.38 Y76.4
Z3.
G1 Z-1.6 F300.
Z-2.5
Z3.
G0 Z5.
X46.92 Y76.5
Z3.
G1 Z-1.6 F300.
Z-2.5
Z3.
G0 Z5.
X49.46
Z3.
G1 Z-1.6 F300.
Z-2.5
Z3.
G0 Z5.
X52.
Z3.
G1 Z-1.6 F300.
Z-2.5
Z3.
G0 Z5.
X45.37 Y63.3
Z3.
G1 Z-1.6 F300.
Z-2.5
Z3.
G0 Z5.
X42.83
Z3.
G1 Z-1.6 F300.
Z-2.5
Z3.
G0 Z5.
X34.38 Y52.2
Z3.
G1 Z-1.6 F300.
Z-2.5
Z3.
G0 Z5.
X31.84
Z3.
G1 Z-1.6 F300.
Z-2.5
Z3.
G0 Z5.
X29.3
Z3.
G1 Z-1.6 F300.
Z-2.5
Z3.
G0 Z5.
X39.62 Y31.
Z3.
G1 Z-1.6 F300.
Z-2.5
Z3.
G0 Z5.
X42.16
Z3.
G1 Z-1.6 F300.
Z-2.5
Z3.
G0 Z5.
X44.7
Z3.
G1 Z-1.6 F300.
Z-2.5
Z3.
G0 Z5.
X52. Y5.
Z3.
G1 Z-1.6 F300.
Z-2.5
Z3.
G0 Z5.
X49.46
Z3.
G1 Z-1.6 F300.
Z-2.5
Z3.
G0 Z5.
X46.92
Z3.
G1 Z-1.6 F300.
Z-2.5
Z3.
G0 Z5.
X44.38 Y4.9
Z3.
G1 Z-1.6 F300.
Z-2.5
Z3.
G0 Z5.
X35.25 Y17.2
Z3.
G1 Z-1.6 F300.
Z-2.5
Z3.
G0 Z5.
X27.75
Z3.
G1 Z-1.6 F300.
Z-2.5
Z3.
G0 Z5.
X30.435 Y5.
Z3.
G1 Z-1.6 F300.
Z-2.5
Z3.
G0 Z5.
X27.895
Z3.
G1 Z-1.6 F300.
Z-2.5
Z3.
G0 Z5.
X21.8 Y10.4
Z3.
G1 Z-1.6 F300.
Z-2.5
Z3.
G0 Z5.
X10.5 Y5.
Z3.
G1 Z-1.6 F300.
Z-2.5
Z3.
G0 Z5.
X7.96
Z3.
G1 Z-1.6 F300.
Z-2.5
Z3.
G0 Z5.
X5.42
Z3.
G1 Z-1.6 F300.
Z-2.5
Z3.
G0 Z5.
X2.88 Y4.9
Z3.
G1 Z-1.6 F300.
Z-2.5
Z3.
G0 Z5.
Z10.

M9
G28 G91 Z0.
G90
G28 G91 X0. Y0.
G90
M30
