(BOARD)
(T5  D=2.2 CR=0. - ZMIN=-1.8 - FLAT END MILL)
G90 G94 G91.1 G40 G49 G17
G21
G28 G91 Z0.
G90

(2D CONTOUR1)
M5
T5 M6
S20000 M3
G54
G0 A0.
M8
G0 X-0.22 Y83.98
G43 Z15. H5
Z5.
G1 Z0.44 F200.
Z-0.78
G19 G2 Y83.76 Z-1. J-0.22 K0. F500.
G1 Y83.54
G17 G3 X0. Y83.32 I0.22 J0.
G1 X137.14
G2 X138.24 Y82.22 I0. J-1.1
G1 Y0.
G2 X137.14 Y-1.1 I-1.1 J0.
G1 X0.
G2 X-1.1 Y0. I0. J1.1
G1 Y82.22
G2 X0. Y83.32 I1.1 J0.
G3 X0.22 Y83.54 I0. J0.22
G1 Y83.76
G19 G3 Y83.98 Z-0.78 J0. K0.22
G0 Z5.
X-0.22
G1 Z-0.56 F200.
Z-1.58
G2 Y83.76 Z-1.8 J-0.22 K0. F500.
G1 Y83.54
G17 G3 X0. Y83.32 I0.22 J0.
G1 X137.14
G2 X138.24 Y82.22 I0. J-1.1
G1 Y0.
G2 X137.14 Y-1.1 I-1.1 J0.
G1 X0.
G2 X-1.1 Y0. I0. J1.1
G1 Y82.22
G2 X0. Y83.32 I1.1 J0.
G3 X0.22 Y83.54 I0. J0.22
G1 Y83.76
G19 G3 Y83.98 Z-1.58 J0. K0.22
G0 Z15.
G17

M9
G28 G91 Z0.
G90
G28 G91 X0. Y0.
G90
M30
