(DRILL CONECT)
(T14  D=0.8 CR=0. TAPER=118DEG - ZMIN=-2. - DRILL)
G90 G94 G91.1 G40 G49 G17
G21
G28 G91 Z0.
G90

(DRILL1 3)
M5
T14 M6
S18000 M3
G54
G0 A0.
M8
G0 X131.4 Y76.4
G43 Z5. H14
Z2.
Z0.948
G1 Z-1.2 F200.
Z-2.
Z0.948
G0 Z2.
X120.5 Y20.9
Z0.948
G1 Z-1.2 F200.
Z-2.
Z0.948
G0 Z2.
X118.35 Y7.677
Z0.948
G1 Z-1.2 F200.
Z-2.
Z0.948
G0 Z2.
X113.27
Z0.948
G1 Z-1.2 F200.
Z-2.
Z0.948
G0 Z2.
X108.19
Z0.948
G1 Z-1.2 F200.
Z-2.
Z0.948
G0 Z2.
X103.11
Z0.948
G1 Z-1.2 F200.
Z-2.
Z0.948
G0 Z2.
X95.25
Z0.948
G1 Z-1.2 F200.
Z-2.
Z0.948
G0 Z2.
Y20.32
Z0.948
G1 Z-1.2 F200.
Z-2.
Z0.948
G0 Z2.
X90.17
Z0.948
G1 Z-1.2 F200.
Z-2.
Z0.948
G0 Z2.
Y7.677
Z0.948
G1 Z-1.2 F200.
Z-2.
Z0.948
G0 Z2.
X85.09
Z0.948
G1 Z-1.2 F200.
Z-2.
Z0.948
G0 Z2.
Y20.32
Z0.948
G1 Z-1.2 F200.
Z-2.
Z0.948
G0 Z2.
X71.06 Y7.677
Z0.948
G1 Z-1.2 F200.
Z-2.
Z0.948
G0 Z2.
X65.98
Z0.948
G1 Z-1.2 F200.
Z-2.
Z0.948
G0 Z2.
X59.116
Z0.948
G1 Z-1.2 F200.
Z-2.
Z0.948
G0 Z2.
X54.036
Z0.948
G1 Z-1.2 F200.
Z-2.
Z0.948
G0 Z2.
X48.956
Z0.948
G1 Z-1.2 F200.
Z-2.
Z0.948
G0 Z2.
X37.4 Y34.6
Z0.948
G1 Z-1.2 F200.
Z-2.
Z0.948
G0 Z2.
X35.56 Y5.08
Z0.948
G1 Z-1.2 F200.
Z-2.
Z0.948
G0 Z2.
X31.6
Z0.948
G1 Z-1.2 F200.
Z-2.
Z0.948
G0 Z2.
X3.8 Y76.6
Z0.948
G1 Z-1.2 F200.
Z-2.
Z0.948
G0 Z2.
Z5.

M9
G28 G91 Z0.
G90
G28 G91 X0. Y0.
G90
M30
