(DRILL RES)
(T14  D=0.8 CR=0. TAPER=118DEG - ZMIN=-2. - DRILL)
G90 G94 G91.1 G40 G49 G17
G21
G28 G91 Z0.
G90

(DRILL1)
M5
T14 M6
S18000 M3
G54
G0 A0.
M8
G0 X125.71 Y46.2
G43 Z5. H14
Z2.
Z0.948
G1 Z-1.2 F200.
Z-2.
Z0.948
G0 Z2.
Y57.6
Z0.948
G1 Z-1.2 F200.
Z-2.
Z0.948
G0 Z2.
X121.67 Y67.09
Z0.948
G1 Z-1.2 F200.
Z-2.
Z0.948
G0 Z2.
X119.13
Z1.018
G1 Z-1.2 F200.
Z-2.
Z1.018
G0 Z2.
Y74.71
Z0.948
G1 Z-1.2 F200.
Z-2.
Z0.948
G0 Z2.
X121.67
Z0.948
G1 Z-1.2 F200.
Z-2.
Z0.948
G0 Z2.
X130.79 Y57.6
Z0.948
G1 Z-1.2 F200.
Z-2.
Z0.948
G0 Z2.
Y46.2
Z0.948
G1 Z-1.2 F200.
Z-2.
Z0.948
G0 Z2.
X128.1 Y26.16
Z0.948
G1 Z-1.2 F200.
Z-2.
Z0.948
G0 Z2.
Y15.34
Z0.948
G1 Z-1.2 F200.
Z-2.
Z0.948
G0 Z2.
X113.1 Y13.7
Z0.948
G1 Z-1.2 F200.
Z-2.
Z0.948
G0 Z2.
X112.22 Y19.47
Z0.948
G1 Z-1.2 F200.
Z-2.
Z0.948
G0 Z2.
X108.1 Y16.2
Z0.948
G1 Z-1.2 F200.
Z-2.
Z0.948
G0 Z2.
X107.14 Y19.47
Z0.948
G1 Z-1.2 F200.
Z-2.
Z0.948
G0 Z2.
X90.1 Y28.9
Z0.948
G1 Z-1.2 F200.
Z-2.
Z0.948
G0 Z2.
X90.3 Y13.7
Z0.948
G1 Z-1.2 F200.
Z-2.
Z0.948
G0 Z2.
X78.74 Y5.08
Z0.948
G1 Z-1.2 F200.
Z-2.
Z0.948
G0 Z2.
Y10.16
Z0.948
G1 Z-1.2 F200.
Z-2.
Z0.948
G0 Z2.
Y17.78
Z0.948
G1 Z-1.2 F200.
Z-2.
Z0.948
G0 Z2.
Y22.86
Z0.948
G1 Z-1.2 F200.
Z-2.
Z0.948
G0 Z2.
X70.42 Y15.56
Z0.948
G1 Z-1.2 F200.
Z-2.
Z0.948
G0 Z2.
X65.34
Z0.948
G1 Z-1.2 F200.
Z-2.
Z0.948
G0 Z2.
X56.2 Y15.08
Z0.948
G1 Z-1.2 F200.
Z-2.
Z0.948
G0 Z2.
X51.12
Z0.948
G1 Z-1.2 F200.
Z-2.
Z0.948
G0 Z2.
X62. Y27.3
Z0.948
G1 Z-1.2 F200.
Z-2.
Z0.948
G0 Z2.
X68.697 Y54.443
Z0.948
G1 Z-1.2 F200.
Z-2.
Z0.948
G0 Z2.
X66.6 Y64.6
Z0.948
G1 Z-1.2 F200.
Z-2.
Z0.948
G0 Z2.
X56.06 Y60.7
Z0.948
G1 Z-1.2 F200.
Z-2.
Z0.948
G0 Z2.
Y55.8
Z0.948
G1 Z-1.2 F200.
Z-2.
Z0.948
G0 Z2.
X45.24
Z0.948
G1 Z-1.2 F200.
Z-2.
Z0.948
G0 Z2.
Y60.7
Z0.948
G1 Z-1.2 F200.
Z-2.
Z0.948
G0 Z2.
X36.22 Y65.95
Z0.948
G1 Z-1.2 F200.
Z-2.
Z0.948
G0 Z2.
X33.68 Y61.
Z0.948
G1 Z-1.2 F200.
Z-2.
Z0.948
G0 Z2.
X25.4 Y65.95
Z0.948
G1 Z-1.2 F200.
Z-2.
Z0.948
G0 Z2.
X22.86 Y61.
Z0.948
G1 Z-1.2 F200.
Z-2.
Z0.948
G0 Z2.
X25.52 Y52.092
Z0.948
G1 Z-1.2 F200.
Z-2.
Z0.948
G0 Z2.
X17.8 Y42.954
Z0.948
G1 Z-1.2 F200.
Z-2.
Z0.948
G0 Z2.
X13.8 Y42.5
Z0.948
G1 Z-1.2 F200.
Z-2.
Z0.948
G0 Z2.
Z5.

M9
G28 G91 Z0.
G90
G28 G91 X0. Y0.
G90
M30
