(DRILL PIN)
(T14  D=0.8 CR=0. TAPER=118DEG - ZMIN=-2. - DRILL)
G90 G94 G91.1 G40 G49 G17
G21
G28 G91 Z0.
G90

(DRILL1 2)
M5
T14 M6
S18000 M3
G54
G0 A0.
M8
G0 X17.78 Y76.2
G43 Z5. H14
Z2.
Z0.948
G1 Z-1.2 F200.
Z-2.
Z0.948
G0 Z2.
X15.24
Z0.948
G1 Z-1.2 F200.
Z-2.
Z0.948
G0 Z2.
X12.7
Z0.948
G1 Z-1.2 F200.
Z-2.
Z0.948
G0 Z2.
X10.16
Z0.948
G1 Z-1.2 F200.
Z-2.
Z0.948
G0 Z2.
X3.8 Y76.6
Z0.948
G1 Z-1.2 F200.
Z-2.
Z0.948
G0 Z2.
X20.32 Y76.2
Z0.948
G1 Z-1.2 F200.
Z-2.
Z0.948
G0 Z2.
X22.86
Z0.948
G1 Z-1.2 F200.
Z-2.
Z0.948
G0 Z2.
X25.4
Z0.948
G1 Z-1.2 F200.
Z-2.
Z0.948
G0 Z2.
X27.94
Z0.948
G1 Z-1.2 F200.
Z-2.
Z0.948
G0 Z2.
X30.48
Z0.948
G1 Z-1.2 F200.
Z-2.
Z0.948
G0 Z2.
X33.02
Z0.948
G1 Z-1.2 F200.
Z-2.
Z0.948
G0 Z2.
X35.56
Z0.948
G1 Z-1.2 F200.
Z-2.
Z0.948
G0 Z2.
X38.1
Z0.948
G1 Z-1.2 F200.
Z-2.
Z0.948
G0 Z2.
X40.64
Z0.948
G1 Z-1.2 F200.
Z-2.
Z0.948
G0 Z2.
X43.18
Z0.948
G1 Z-1.2 F200.
Z-2.
Z0.948
G0 Z2.
X45.72
Z0.948
G1 Z-1.2 F200.
Z-2.
Z0.948
G0 Z2.
X48.26
Z0.948
G1 Z-1.2 F200.
Z-2.
Z0.948
G0 Z2.
Y45.72
Z0.948
G1 Z-1.2 F200.
Z-2.
Z0.948
G0 Z2.
X45.72
Z0.948
G1 Z-1.2 F200.
Z-2.
Z0.948
G0 Z2.
X43.18
Z0.948
G1 Z-1.2 F200.
Z-2.
Z0.948
G0 Z2.
X40.64
Z0.948
G1 Z-1.2 F200.
Z-2.
Z0.948
G0 Z2.
X38.1
Z0.948
G1 Z-1.2 F200.
Z-2.
Z0.948
G0 Z2.
X35.56
Z0.948
G1 Z-1.2 F200.
Z-2.
Z0.948
G0 Z2.
X33.02
Z0.948
G1 Z-1.2 F200.
Z-2.
Z0.948
G0 Z2.
X30.48
Z0.948
G1 Z-1.2 F200.
Z-2.
Z0.948
G0 Z2.
X27.94
Z0.948
G1 Z-1.2 F200.
Z-2.
Z0.948
G0 Z2.
X25.4
Z0.948
G1 Z-1.2 F200.
Z-2.
Z0.948
G0 Z2.
X22.86
Z0.948
G1 Z-1.2 F200.
Z-2.
Z0.948
G0 Z2.
X20.32
Z0.948
G1 Z-1.2 F200.
Z-2.
Z0.948
G0 Z2.
X17.78
Z0.948
G1 Z-1.2 F200.
Z-2.
Z0.948
G0 Z2.
X15.24
Z0.948
G1 Z-1.2 F200.
Z-2.
Z0.948
G0 Z2.
X12.7
Z0.948
G1 Z-1.2 F200.
Z-2.
Z0.948
G0 Z2.
X10.16
Z0.948
G1 Z-1.2 F200.
Z-2.
Z0.948
G0 Z2.
X4.97 Y36.29
Z0.948
G1 Z-1.2 F200.
Z-2.
Z0.948
G0 Z2.
X10.97 Y2.69
Z0.948
G1 Z-1.2 F200.
Z-2.
Z0.948
G0 Z2.
X16.97
Z0.948
G1 Z-1.2 F200.
Z-2.
Z0.948
G0 Z2.
X22.97 Y36.29
Z0.948
G1 Z-1.2 F200.
Z-2.
Z0.948
G0 Z2.
X37.4 Y34.6
Z0.948
G1 Z-1.2 F200.
Z-2.
Z0.948
G0 Z2.
X48.35 Y34.233
Z0.948
G1 Z-1.2 F200.
Z-2.
Z0.948
G0 Z2.
Y31.693
Z0.948
G1 Z-1.2 F200.
Z-2.
Z0.948
G0 Z2.
Y24.073
Z0.948
G1 Z-1.2 F200.
Z-2.
Z0.948
G0 Z2.
Y21.533
Z0.948
G1 Z-1.2 F200.
Z-2.
Z0.948
G0 Z2.
X68.67
Z0.948
G1 Z-1.2 F200.
Z-2.
Z0.948
G0 Z2.
Y24.073
Z0.948
G1 Z-1.2 F200.
Z-2.
Z0.948
G0 Z2.
Y31.693
Z0.948
G1 Z-1.2 F200.
Z-2.
Z0.948
G0 Z2.
Y34.233
Z0.948
G1 Z-1.2 F200.
Z-2.
Z0.948
G0 Z2.
X120.5 Y20.9
Z0.948
G1 Z-1.2 F200.
Z-2.
Z0.948
G0 Z2.
X128.26 Y7.677
Z0.948
G1 Z-1.2 F200.
Z-2.
Z0.948
G0 Z2.
X133.34
Z0.948
G1 Z-1.2 F200.
Z-2.
Z0.948
G0 Z2.
X131.4 Y76.4
Z0.948
G1 Z-1.2 F200.
Z-2.
Z0.948
G0 Z2.
Z5.

M9
G28 G91 Z0.
G90
G28 G91 X0. Y0.
G90
M30
